findly-builder/apps/searchassist/src/assets/icons/sidemenu/new-icons/index-active.svg

<svg width="15" height="15" viewBox="0 0 15 15" fill="none" xmlns="http://www.w3.org/2000/svg">
<path d="M1.58532 0C0.758776 0 0.0780029 0.677469 0.0780029 1.5V11.5C0.0780029 12.3225 0.758776 13 1.58532 13H6.10727V12H1.58532C1.30248 12 1.08288 11.7815 1.08288 11.5V9H3.09264V8H1.08288V5H3.09264V4H1.08288V1.5C1.08288 1.21853 1.30248 1 1.58532 1H10.6292C10.9121 1 11.1317 1.21853 11.1317 1.5V4H4.09752V5H11.1317V7.125H12.1365V1.5C12.1365 0.677469 11.4558 0 10.6292 0H1.58532ZM4.09752 8V9H6.10727V8H4.09752ZM10.1268 8V9.05078H10.1248C9.80594 9.11617 9.51048 9.24406 9.24751 9.41797L8.47227 8.64648L7.76179 9.35352L8.53703 10.125C8.36228 10.3867 8.23377 10.6827 8.16806 11H7.11215V12H8.16806V12.002C8.23377 12.3193 8.36228 12.6133 8.53703 12.875L7.76179 13.6465L8.47227 14.3535L9.24751 13.582C9.51048 13.7559 9.8079 13.8838 10.1268 13.9492V15H11.1317V13.9492H11.1336C11.4419 13.886 11.7271 13.7627 11.9835 13.5977L12.7685 14.4609L13.5143 13.7891L12.7057 12.9023C12.8896 12.6343 13.0225 12.328 13.0904 12H14.1463V11H13.0904V10.998C13.025 10.6825 12.8986 10.3895 12.7253 10.1289L13.4927 9.37695L12.7901 8.66406L12.0168 9.41992C11.7526 9.24427 11.4526 9.1166 11.1317 9.05078V8H10.1268ZM10.6292 10C11.4676 10 12.1365 10.6657 12.1365 11.5C12.1365 12.3343 11.4676 13 10.6292 13C9.7908 13 9.12191 12.3343 9.12191 11.5C9.12191 10.6657 9.7908 10 10.6292 10Z" fill="#0D6EFD"/>
</svg>

<svg width="15" height="15" fill="none" xmlns="http://www.w3.org/2000/svg"><path d="M1.585 0C.76 0 .078.677.078 1.5v10c0 .822.68 1.5 1.507 1.5h4.522v-1H1.585a.495.495 0 0 1-.502-.5V9h2.01V8h-2.01V5h2.01V4h-2.01V1.5c0-.281.22-.5.502-.5h9.044c.283 0 .503.219.503.5V4H4.098v1h7.034v2.125h1.005V1.5c0-.823-.681-1.5-1.508-1.5H1.585Zm2.513 8v1h2.01V8h-2.01Zm6.029 0v1.05h-.002a2.5 2.5 0 0 0-.877.368l-.776-.772-.71.708.775.771a2.485 2.485 0 0 0-.369.875H7.112v1h1.056v.002c.066.317.194.611.369.873l-.775.771.71.707.776-.771c.262.174.56.302.879.367V15h1.005v-1.05h.002c.308-.064.593-.187.85-.352l.784.863.746-.672-.808-.887c.184-.268.317-.574.384-.902h1.056v-1H13.09v-.002a2.476 2.476 0 0 0-.365-.87l.768-.751-.703-.713-.773.756a2.511 2.511 0 0 0-.885-.37V8h-1.005Zm.502 2c.839 0 1.508.666 1.508 1.5s-.67 1.5-1.508 1.5a1.496 1.496 0 0 1-1.507-1.5c0-.834.669-1.5 1.507-1.5Z" fill="#0D6EFD"/></svg>
